!!!OTL: Von dem heiligen Ritter sanct Joergen (Georg)
!!!ARE: Europa, Mitteleuropa, Deutschland
!!!SCT: A0613
!!!YEM: Copyright 1995, estate of Helmut Schaffrath.
**kern
*ICvox
*Ivox
*M4/2
*k[f#]
*G:
{2g
=1
2cc
2cc
2g
2g
=2
2cc
2cc
2.dd}
{4cc
=3
1dd
2cc
2ee
=4
1dd
1cc
=5
2r}
{2cc
2cc
2ee
=6
2dd
2dd
2g
2a
=7
1g}
{2.b-
4cc
=8
1dd
2.cc
4b-
=9
1.g}
==
!!!AGN: Romanze, Ballade, Lied, religioeses Lied
!! Beuttner 1602 II No. 73.
!!!ONB: ESAC (Essen Associative Code) Database: ALTDEU
!!!AMT: simple quadruple
!!!AIN: vox
!!!EED: Helmut Schaffrath
!!!EEV: 1.0
*-
